icons/sv.svg

<?xml version="1.0" ?>
<svg xmlns="http://www.w3.org/2000/svg" xmlns:ev="http://www.w3.org/2001/xml-events" xmlns:xlink="http://www.w3.org/1999/xlink" baseProfile="full" height="341px" version="1.1" viewBox="-1030.2493089276031 1626.0663511400096 12299.785273851256 6978.861135824001" width="600px">
	<defs/>
	<path d="M 2835.0,8014.0 C 2830.0,8012.0 2799.0,8004.0 2768.0,7995.0 C 2726.0,7983.0 2709.0,7973.0 2704.0,7957.0 C 2701.0,7945.0 2680.0,7916.0 2658.0,7893.0 C 2610.0,7844.0 2565.0,7832.0 2521.0,7855.0 C 2504.0,7863.0 2482.0,7870.0 2470.0,7870.0 C 2452.0,7870.0 2450.0,7864.0 2450.0,7802.0 C 2450.0,7753.0 2442.0,7709.0 2420.0,7645.0 C 2404.0,7596.0 2390.0,7555.0 2390.0,7553.0 C 2390.0,7551.0 2414.0,7550.0 2443.0,7550.0 C 2491.0,7550.0 2500.0,7546.0 2558.0,7500.0 L 2620.0,7449.0 L 2620.0,7336.0 L 2620.0,7224.0 L 2573.0,7156.0 C 2529.0,7093.0 2519.0,7085.0 2445.0,7053.0 C 2333.0,7004.0 2258.0,6985.0 2086.0,6961.0 C 2004.0,6949.0 1930.0,6934.0 1921.0,6927.0 C 1739.0,6772.0 1725.0,6758.0 1644.0,6629.0 C 1599.0,6558.0 1557.0,6494.0 1551.0,6487.0 C 1546.0,6480.0 1434.0,6432.0 1304.0,6380.0 C 1084.0,6292.0 1063.0,6282.0 1002.0,6228.0 C 966.0,6195.0 920.0,6165.0 897.0,6158.0 C 865.0,6148.0 853.0,6137.0 829.0,6094.0 C 790.0,6025.0 719.0,5960.0 683.0,5960.0 C 666.0,5960.0 637.0,5946.0 612.0,5925.0 C 588.0,5906.0 540.0,5874.0 505.0,5854.0 C 446.0,5819.0 441.0,5814.0 425.0,5761.0 C 409.0,5706.0 405.0,5702.0 339.0,5665.0 C 287.0,5636.0 262.0,5614.0 239.0,5578.0 C 222.0,5552.0 190.0,5516.0 168.0,5499.0 C 144.0,5479.0 116.0,5441.0 93.0,5396.0 L 57.0,5325.0 L 74.0,5253.0 L 92.0,5181.0 L 45.0,5096.0 L -1.0,5011.0 L 42.0,4987.0 C 302.0,4838.0 305.0,4837.0 397.0,4856.0 C 426.0,4862.0 448.0,4826.0 429.0,4804.0 C 422.0,4795.0 420.0,4786.0 426.0,4780.0 C 442.0,4764.0 759.0,4581.0 848.0,4535.0 C 964.0,4477.0 1156.0,4309.0 1153.0,4270.0 C 1151.0,4249.0 1170.0,4137.0 1186.0,4078.0 C 1189.0,4069.0 1210.0,4047.0 1233.0,4030.0 L 1275.0,3999.0 L 1425.0,4001.0 C 1511.0,4002.0 1603.0,3998.0 1640.0,3991.0 C 1698.0,3981.0 1711.0,3981.0 1759.0,3998.0 L 1813.0,4016.0 L 1992.0,3959.0 C 2149.0,3908.0 2185.0,3900.0 2283.0,3894.0 C 2392.0,3887.0 2396.0,3886.0 2435.0,3853.0 C 2475.0,3818.0 2476.0,3818.0 2550.0,3824.0 C 2591.0,3827.0 2724.0,3826.0 2845.0,3821.0 C 3042.0,3814.0 3069.0,3815.0 3106.0,3830.0 L 3146.0,3847.0 L 3184.0,3817.0 C 3226.0,3784.0 3265.0,3777.0 3396.0,3779.0 L 3478.0,3781.0 L 3666.0,3679.0 C 3770.0,3623.0 3918.0,3546.0 3996.0,3509.0 C 4076.0,3471.0 4186.0,3407.0 4251.0,3362.0 C 4325.0,3310.0 4431.0,3251.0 4553.0,3192.0 C 4656.0,3142.0 4740.0,3104.0 4740.0,3106.0 C 4740.0,3109.0 4728.0,3127.0 4714.0,3146.0 C 4690.0,3177.0 4689.0,3180.0 4707.0,3180.0 C 4718.0,3180.0 4737.0,3169.0 4750.0,3155.0 C 4763.0,3141.0 4778.0,3130.0 4783.0,3130.0 C 4788.0,3130.0 4808.0,3123.0 4827.0,3113.0 L 4862.0,3097.0 L 4833.0,3085.0 C 4806.0,3073.0 4808.0,3071.0 4959.0,2996.0 C 5052.0,2949.0 5121.0,2920.0 5136.0,2922.0 C 5157.0,2925.0 5152.0,2932.0 5089.0,2982.0 C 5015.0,3043.0 5012.0,3057.0 5083.0,3016.0 C 5106.0,3003.0 5143.0,2989.0 5165.0,2985.0 C 5201.0,2980.0 5208.0,2973.0 5237.0,2921.0 C 5261.0,2878.0 5266.0,2860.0 5258.0,2852.0 C 5244.0,2838.0 5234.0,2846.0 5357.0,2771.0 C 5506.0,2680.0 5679.0,2620.0 5901.0,2581.0 C 6088.0,2548.0 6309.0,2498.0 6581.0,2426.0 C 6722.0,2389.0 6762.0,2374.0 6856.0,2322.0 C 6916.0,2289.0 6966.0,2265.0 6968.0,2270.0 C 6970.0,2275.0 6966.0,2296.0 6960.0,2318.0 C 6945.0,2376.0 6895.0,2416.0 6828.0,2425.0 C 6799.0,2429.0 6757.0,2443.0 6735.0,2456.0 C 6713.0,2468.0 6670.0,2482.0 6640.0,2486.0 C 6610.0,2490.0 6569.0,2501.0 6550.0,2510.0 L 6516.0,2528.0 L 6568.0,2535.0 C 6597.0,2539.0 6620.0,2545.0 6620.0,2549.0 C 6620.0,2552.0 6585.0,2590.0 6543.0,2633.0 L 6465.0,2710.0 L 6370.0,2699.0 C 6317.0,2693.0 6271.0,2683.0 6265.0,2676.0 C 6252.0,2660.0 6195.0,2640.0 6162.0,2640.0 C 6148.0,2640.0 6118.0,2651.0 6096.0,2664.0 C 6073.0,2677.0 6032.0,2691.0 6003.0,2695.0 C 5972.0,2699.0 5945.0,2709.0 5934.0,2721.0 C 5918.0,2739.0 5918.0,2740.0 5946.0,2740.0 C 5962.0,2740.0 5981.0,2736.0 5989.0,2731.0 C 5999.0,2725.0 6013.0,2726.0 6029.0,2734.0 C 6057.0,2748.0 6153.0,2749.0 6183.0,2735.0 C 6196.0,2730.0 6207.0,2733.0 6218.0,2744.0 C 6234.0,2760.0 6234.0,2763.0 6218.0,2790.0 L 6201.0,2820.0 L 6233.0,2828.0 C 6255.0,2834.0 6266.0,2843.0 6268.0,2858.0 C 6273.0,2890.0 6288.0,2885.0 6306.0,2846.0 L 6322.0,2813.0 L 6414.0,2806.0 C 6518.0,2798.0 6529.0,2790.0 6618.0,2673.0 L 6665.0,2610.0 L 6751.0,2610.0 C 6816.0,2610.0 6841.0,2606.0 6850.0,2595.0 C 6861.0,2582.0 6853.0,2580.0 6791.0,2580.0 C 6717.0,2580.0 6714.0,2578.0 6726.0,2533.0 C 6732.0,2512.0 6738.0,2510.0 6810.0,2510.0 C 6852.0,2510.0 6901.0,2505.0 6918.0,2499.0 C 6943.0,2490.0 6959.0,2492.0 6995.0,2505.0 C 7043.0,2524.0 7051.0,2542.0 7025.0,2570.0 C 7003.0,2594.0 6993.0,2660.0 7011.0,2660.0 C 7036.0,2660.0 7047.0,2646.0 7094.0,2553.0 L 7140.0,2461.0 L 7110.0,2398.0 C 7093.0,2363.0 7080.0,2330.0 7080.0,2324.0 C 7080.0,2310.0 7124.0,2290.0 7153.0,2290.0 C 7189.0,2290.0 7350.0,2322.0 7350.0,2329.0 C 7350.0,2332.0 7339.0,2342.0 7324.0,2351.0 C 7299.0,2366.0 7300.0,2367.0 7382.0,2384.0 C 7428.0,2394.0 7484.0,2412.0 7506.0,2426.0 L 7548.0,2450.0 L 7554.0,2427.0 C 7563.0,2393.0 7562.0,2392.0 7525.0,2380.0 C 7493.0,2370.0 7492.0,2367.0 7502.0,2344.0 C 7508.0,2331.0 7523.0,2317.0 7534.0,2315.0 C 7546.0,2312.0 7614.0,2297.0 7686.0,2280.0 C 7881.0,2235.0 7984.0,2228.0 8237.0,2239.0 C 8422.0,2248.0 8456.0,2252.0 8467.0,2266.0 C 8477.0,2280.0 8491.0,2282.0 8557.0,2277.0 C 8600.0,2273.0 8720.0,2266.0 8824.0,2260.0 C 8927.0,2254.0 9016.0,2247.0 9021.0,2244.0 C 9027.0,2241.0 9106.0,2234.0 9198.0,2229.0 C 9290.0,2224.0 9377.0,2217.0 9393.0,2214.0 C 9418.0,2209.0 9420.0,2211.0 9420.0,2242.0 C 9420.0,2270.0 9413.0,2280.0 9370.0,2309.0 C 9285.0,2367.0 9291.0,2373.0 9508.0,2465.0 L 9695.0,2545.0 L 9813.0,2660.0 C 9957.0,2799.0 9957.0,2799.0 9847.0,2906.0 C 9783.0,2969.0 9767.0,2980.0 9705.0,2999.0 L 9635.0,3020.0 L 9602.0,3108.0 C 9575.0,3179.0 9571.0,3201.0 9579.0,3223.0 C 9594.0,3263.0 9720.0,3460.0 9731.0,3460.0 C 9745.0,3460.0 9742.0,3442.0 9724.0,3415.0 C 9694.0,3369.0 9712.0,3331.0 9785.0,3283.0 C 9821.0,3259.0 9854.0,3240.0 9858.0,3240.0 C 9879.0,3240.0 9910.0,3290.0 9916.0,3332.0 C 9922.0,3375.0 9925.0,3379.0 9974.0,3403.0 C 10002.0,3417.0 10044.0,3432.0 10068.0,3435.0 C 10103.0,3441.0 10116.0,3450.0 10145.0,3487.0 C 10174.0,3524.0 10180.0,3542.0 10180.0,3580.0 C 10180.0,3622.0 10176.0,3630.0 10142.0,3657.0 C 10112.0,3681.0 10092.0,3688.0 10035.0,3694.0 C 9922.0,3705.0 9922.0,3705.0 9904.0,3767.0 C 9892.0,3809.0 9890.0,3842.0 9895.0,3910.0 C 9901.0,3992.0 9905.0,4002.0 9936.0,4039.0 C 10005.0,4120.0 10050.0,4259.0 10050.0,4394.0 C 10050.0,4494.0 10067.0,4537.0 10144.0,4630.0 C 10169.0,4660.0 10190.0,4688.0 10190.0,4691.0 C 10190.0,4694.0 10174.0,4717.0 10155.0,4741.0 C 10104.0,4805.0 10108.0,4835.0 10172.0,4885.0 C 10253.0,4949.0 10261.0,4997.0 10201.0,5068.0 C 10180.0,5094.0 10146.0,5147.0 10126.0,5187.0 C 10094.0,5252.0 10085.0,5262.0 10028.0,5294.0 C 9972.0,5325.0 9959.0,5338.0 9915.0,5411.0 C 9888.0,5456.0 9858.0,5498.0 9848.0,5504.0 C 9835.0,5512.0 9812.0,5501.0 9738.0,5452.0 L 9644.0,5390.0 L 9566.0,5405.0 C 9497.0,5418.0 9478.0,5418.0 9412.0,5406.0 C 9342.0,5393.0 9333.0,5393.0 9301.0,5410.0 L 9266.0,5428.0 L 9154.0,5372.0 C 9050.0,5321.0 9038.0,5317.0 9003.0,5326.0 C 8970.0,5334.0 8961.0,5343.0 8926.0,5405.0 C 8819.0,5598.0 8770.0,5703.0 8770.0,5740.0 C 8770.0,5776.0 8769.0,5778.0 8699.0,5809.0 C 8616.0,5845.0 8609.0,5845.0 8482.0,5824.0 C 8394.0,5809.0 8379.0,5809.0 8295.0,5824.0 C 8184.0,5844.0 8110.0,5845.0 8110.0,5828.0 C 8110.0,5821.0 8119.0,5786.0 8131.0,5750.0 C 8150.0,5688.0 8150.0,5684.0 8133.0,5653.0 C 8114.0,5617.0 8064.0,5594.0 8026.0,5604.0 C 8008.0,5608.0 7994.0,5600.0 7961.0,5565.0 C 7908.0,5508.0 7880.0,5494.0 7805.0,5487.0 C 7714.0,5478.0 7614.0,5443.0 7572.0,5406.0 C 7501.0,5344.0 7489.0,5340.0 7380.0,5340.0 C 7284.0,5340.0 7276.0,5338.0 7235.0,5310.0 C 7207.0,5291.0 7179.0,5280.0 7156.0,5280.0 C 7136.0,5280.0 7118.0,5274.0 7113.0,5266.0 C 7109.0,5258.0 7089.0,5249.0 7070.0,5246.0 C 7038.0,5240.0 7030.0,5244.0 6979.0,5290.0 C 6931.0,5332.0 6920.0,5348.0 6909.0,5392.0 C 6903.0,5421.0 6884.0,5483.0 6869.0,5529.0 C 6853.0,5575.0 6842.0,5615.0 6844.0,5619.0 C 6846.0,5622.0 6855.0,5649.0 6863.0,5677.0 C 6879.0,5729.0 6879.0,5730.0 6854.0,5759.0 C 6839.0,5777.0 6801.0,5799.0 6759.0,5816.0 C 6720.0,5832.0 6674.0,5858.0 6656.0,5874.0 C 6592.0,5937.0 6568.0,5950.0 6520.0,5950.0 C 6487.0,5950.0 6468.0,5956.0 6456.0,5968.0 C 6425.0,6003.0 6366.0,6013.0 6275.0,5999.0 C 6179.0,5985.0 6159.0,5993.0 6113.0,6066.0 C 6085.0,6109.0 6084.0,6110.0 6030.0,6110.0 C 6000.0,6110.0 5953.0,6118.0 5925.0,6129.0 C 5882.0,6145.0 5874.0,6153.0 5862.0,6188.0 C 5850.0,6226.0 5850.0,6231.0 5874.0,6269.0 C 5900.0,6310.0 5906.0,6365.0 5892.0,6418.0 C 5885.0,6440.0 5885.0,6440.0 5826.0,6403.0 L 5767.0,6366.0 L 5720.0,6383.0 C 5694.0,6392.0 5637.0,6405.0 5594.0,6412.0 C 5502.0,6425.0 5478.0,6442.0 5460.0,6507.0 C 5433.0,6601.0 5335.0,6731.0 5234.0,6806.0 C 5171.0,6852.0 5154.0,6860.0 5117.0,6860.0 C 5026.0,6860.0 4910.0,6917.0 4910.0,6961.0 C 4910.0,7008.0 4880.0,7050.0 4812.0,7099.0 C 4720.0,7166.0 4692.0,7210.0 4675.0,7315.0 C 4668.0,7360.0 4657.0,7406.0 4652.0,7417.0 C 4646.0,7427.0 4604.0,7456.0 4558.0,7482.0 C 4480.0,7525.0 4469.0,7528.0 4375.0,7535.0 C 4266.0,7543.0 4222.0,7557.0 4145.0,7606.0 C 4110.0,7628.0 4073.0,7641.0 4024.0,7649.0 C 3982.0,7655.0 3896.0,7683.0 3808.0,7719.0 C 3690.0,7768.0 3649.0,7780.0 3584.0,7786.0 L 3505.0,7792.0 L 3345.0,7895.0 C 3132.0,8032.0 3107.0,8039.0 3020.0,7995.0 C 2959.0,7964.0 2951.0,7964.0 2892.0,7994.0 C 2866.0,8007.0 2841.0,8016.0 2835.0,8014.0" fill="pink"/>
</svg>

<?xml version="1.0" standalone="no"?>
<!DOCTYPE svg PUBLIC "-//W3C//DTD SVG 20010904//EN"
 "http://www.w3.org/TR/2001/REC-SVG-20010904/DTD/svg10.dtd">
<svg version="1.0" xmlns="http://www.w3.org/2000/svg"
 width="1024.000000pt" height="1024.000000pt" viewBox="0 0 1024.000000 1024.000000"
 preserveAspectRatio="xMidYMid meet">
<metadata>
Created by potrace 1.10, written by Peter Selinger 2001-2011
</metadata>
<g transform="translate(0.000000,1024.000000) scale(0.100000,-0.100000)"
fill="#000000" stroke="none">
<path d="M2835 8014 c-5 -2 -36 -10 -67 -19 -42 -12 -59 -22 -64 -38 -3 -12
-24 -41 -46 -64 -48 -49 -93 -61 -137 -38 -17 8 -39 15 -51 15 -18 0 -20 -6
-20 -68 0 -49 -8 -93 -30 -157 -16 -49 -30 -90 -30 -92 0 -2 24 -3 53 -3 48 0
57 -4 115 -50 l62 -51 0 -113 0 -112 -47 -68 c-44 -63 -54 -71 -128 -103 -112
-49 -187 -68 -359 -92 -82 -12 -156 -27 -165 -34 -182 -155 -196 -169 -277
-298 -45 -71 -87 -135 -93 -142 -5 -7 -117 -55 -247 -107 -220 -88 -241 -98
-302 -152 -36 -33 -82 -63 -105 -70 -32 -10 -44 -21 -68 -64 -39 -69 -110
-134 -146 -134 -17 0 -46 -14 -71 -35 -24 -19 -72 -51 -107 -71 -59 -35 -64
-40 -80 -93 -16 -55 -20 -59 -86 -96 -52 -29 -77 -51 -100 -87 -17 -26 -49
-62 -71 -79 -24 -20 -52 -58 -75 -103 l-36 -71 17 -72 18 -72 -47 -85 -46 -85
43 -24 c260 -149 263 -150 355 -131 29 6 51 -30 32 -52 -7 -9 -9 -18 -3 -24
16 -16 333 -199 422 -245 116 -58 308 -226 305 -265 -2 -21 17 -133 33 -192 3
-9 24 -31 47 -48 l42 -31 150 2 c86 1 178 -3 215 -10 58 -10 71 -10 119 7 l54
18 179 -57 c157 -51 193 -59 291 -65 109 -7 113 -8 152 -41 40 -35 41 -35 115
-29 41 3 174 2 295 -3 197 -7 224 -6 261 9 l40 17 38 -30 c42 -33 81 -40 212
-38 l82 2 188 -102 c104 -56 252 -133 330 -170 80 -38 190 -102 255 -147 74
-52 180 -111 302 -170 103 -50 187 -88 187 -86 0 3 -12 21 -26 40 -24 31 -25
34 -7 34 11 0 30 -11 43 -25 13 -14 28 -25 33 -25 5 0 25 -7 44 -17 l35 -16
-29 -12 c-27 -12 -25 -14 126 -89 93 -47 162 -76 177 -74 21 3 16 10 -47 60
-74 61 -77 75 -6 34 23 -13 60 -27 82 -31 36 -5 43 -12 72 -64 24 -43 29 -61
21 -69 -14 -14 -24 -6 99 -81 149 -91 322 -151 544 -190 187 -33 408 -83 680
-155 141 -37 181 -52 275 -104 60 -33 110 -57 112 -52 2 5 -2 26 -8 48 -15 58
-65 98 -132 107 -29 4 -71 18 -93 31 -22 12 -65 26 -95 30 -30 4 -71 15 -90
24 l-34 18 52 7 c29 4 52 10 52 14 0 3 -35 41 -77 84 l-78 77 -95 -11 c-53 -6
-99 -16 -105 -23 -13 -16 -70 -36 -103 -36 -14 0 -44 11 -66 24 -23 13 -64 27
-93 31 -31 4 -58 14 -69 26 -16 18 -16 19 12 19 16 0 35 -4 43 -9 10 -6 24 -5
40 3 28 14 124 15 154 1 13 -5 24 -2 35 9 16 16 16 19 0 46 l-17 30 32 8 c22
6 33 15 35 30 5 32 20 27 38 -12 l16 -33 92 -7 c104 -8 115 -16 204 -133 l47
-63 86 0 c65 0 90 -4 99 -15 11 -13 3 -15 -59 -15 -74 0 -77 -2 -65 -47 6 -21
12 -23 84 -23 42 0 91 -5 108 -11 25 -9 41 -7 77 6 48 19 56 37 30 65 -22 24
-32 90 -14 90 25 0 36 -14 83 -107 l46 -92 -30 -63 c-17 -35 -30 -68 -30 -74
0 -14 44 -34 73 -34 36 0 197 32 197 39 0 3 -11 13 -26 22 -25 15 -24 16 58
33 46 10 102 28 124 42 l42 24 6 -23 c9 -34 8 -35 -29 -47 -32 -10 -33 -13
-23 -36 6 -13 21 -27 32 -29 12 -3 80 -18 152 -35 195 -45 298 -52 551 -41
185 9 219 13 230 27 10 14 24 16 90 11 43 -4 163 -11 267 -17 103 -6 192 -13
197 -16 6 -3 85 -10 177 -15 92 -5 179 -12 195 -15 25 -5 27 -3 27 28 0 28 -7
38 -50 67 -85 58 -79 64 138 156 l187 80 118 115 c144 139 144 139 34 246 -64
63 -80 74 -142 93 l-70 21 -33 88 c-27 71 -31 93 -23 115 15 40 141 237 152
237 14 0 11 -18 -7 -45 -30 -46 -12 -84 61 -132 36 -24 69 -43 73 -43 21 0 52
50 58 92 6 43 9 47 58 71 28 14 70 29 94 32 35 6 48 15 77 52 29 37 35 55 35
93 0 42 -4 50 -38 77 -30 24 -50 31 -107 37 -113 11 -113 11 -131 73 -12 42
-14 75 -9 143 6 82 10 92 41 129 69 81 114 220 114 355 0 100 17 143 94 236
25 30 46 58 46 61 0 3 -16 26 -35 50 -51 64 -47 94 17 144 81 64 89 112 29
183 -21 26 -55 79 -75 119 -32 65 -41 75 -98 107 -56 31 -69 44 -113 117 -27
45 -57 87 -67 93 -13 8 -36 -3 -110 -52 l-94 -62 -78 15 c-69 13 -88 13 -154
1 -70 -13 -79 -13 -111 4 l-35 18 -112 -56 c-104 -51 -116 -55 -151 -46 -33 8
-42 17 -77 79 -107 193 -156 298 -156 335 0 36 -1 38 -71 69 -83 36 -90 36
-217 15 -88 -15 -103 -15 -187 0 -111 20 -185 21 -185 4 0 -7 9 -42 21 -78 19
-62 19 -66 2 -97 -19 -36 -69 -59 -107 -49 -18 4 -32 -4 -65 -39 -53 -57 -81
-71 -156 -78 -91 -9 -191 -44 -233 -81 -71 -62 -83 -66 -192 -66 -96 0 -104
-2 -145 -30 -28 -19 -56 -30 -79 -30 -20 0 -38 -6 -43 -14 -4 -8 -24 -17 -43
-20 -32 -6 -40 -2 -91 44 -48 42 -59 58 -70 102 -6 29 -25 91 -40 137 -16 46
-27 86 -25 90 2 3 11 30 19 58 16 52 16 53 -9 82 -15 18 -53 40 -95 57 -39 16
-85 42 -103 58 -64 63 -88 76 -136 76 -33 0 -52 6 -64 18 -31 35 -90 45 -181
31 -96 -14 -116 -6 -162 67 -28 43 -29 44 -83 44 -30 0 -77 8 -105 19 -43 16
-51 24 -63 59 -12 38 -12 43 12 81 26 41 32 96 18 149 -7 22 -7 22 -66 -15
l-59 -37 -47 17 c-26 9 -83 22 -126 29 -92 13 -116 30 -134 95 -27 94 -125
224 -226 299 -63 46 -80 54 -117 54 -91 0 -207 57 -207 101 0 47 -30 89 -98
138 -92 67 -120 111 -137 216 -7 45 -18 91 -23 102 -6 10 -48 39 -94 65 -78
43 -89 46 -183 53 -109 8 -153 22 -230 71 -35 22 -72 35 -121 43 -42 6 -128
34 -216 70 -118 49 -159 61 -224 67 l-79 6 -160 103 c-213 137 -238 144 -325
100 -61 -31 -69 -31 -128 -1 -26 13 -51 22 -57 20z"/>
</g>
</svg>
